assets/Spade suit/Flat/spade_suit_flat.svg

<svg width="32" height="32" viewBox="0 0 32 32" fill="none" xmlns="http://www.w3.org/2000/svg">
<path d="M28.6185 14.9654L18.9002 3.34952C17.3896 1.55016 14.6101 1.55016 13.0995 3.34952L3.38128 14.9654C0.168729 18.804 2.91803 24.6219 7.94331 24.6219C10.2696 24.6219 12.3845 23.2624 13.3513 21.1632L13.9958 19.7537V22.9225C13.9958 25.0218 12.3039 26.7212 10.1991 26.7612H10.1186C9.22229 26.7612 8.48711 27.4909 8.48711 28.3806C8.48711 29.2703 9.22229 30 10.1186 30H10.1286H10.2092H14.9022H17.1077H21.8006H21.8812H21.8912C22.7875 30 23.5227 29.2703 23.5227 28.3806C23.5227 27.4909 22.7875 26.7612 21.8912 26.7612H21.8107C19.7059 26.7212 18.014 25.0218 18.014 22.9225V19.7537L18.6585 21.1632C19.6152 23.2724 21.7301 24.6219 24.0665 24.6219C29.0817 24.6219 31.831 18.804 28.6185 14.9654Z" fill="#212121"/>
</svg>

<svg xmlns="http://www.w3.org/2000/svg" width="32" height="32" fill="none"><path fill="#212121" d="M28.619 14.965 18.9 3.35a3.791 3.791 0 0 0-5.8 0L3.38 14.965c-3.212 3.839-.463 9.657 4.562 9.657a5.961 5.961 0 0 0 5.408-3.459l.645-1.41v3.17c0 2.099-1.692 3.798-3.797 3.838h-.08c-.897 0-1.632.73-1.632 1.62 0 .89.735 1.619 1.632 1.619H21.89c.897 0 1.632-.73 1.632-1.62 0-.89-.735-1.619-1.632-1.619h-.08c-2.105-.04-3.797-1.74-3.797-3.838v-3.17l.645 1.41c.956 2.11 3.071 3.459 5.408 3.459 5.015 0 7.764-5.818 4.552-9.657Z"/></svg>
